src/pos-icons/cog-off-outline.svg

<svg height="24" viewBox="0 0 24 24" width="24" xmlns="http://www.w3.org/2000/svg"><path d="m22.11 21.46-19.72-19.73-1.28 1.27 2.89 2.88-1.66 2.85c-.13.22-.07.49.12.64l2.11 1.63-.07 1 .07.97-2.11 1.66c-.19.15-.25.42-.12.64l2 3.46c.12.22.39.3.61.22l2.49-1.01c.52.4 1.06.74 1.69.99l.37 2.65c.04.24.25.42.5.42h4c.25 0 .46-.18.5-.42l.37-2.65c.51-.2.96-.48 1.39-.78l4.58 4.58zm-12.11-9.56 2.1 2.1c-.04 0-.07 0-.1 0-1.1 0-2-.89-2-2 0-.03 0-.06 0-.1m3.13 5.49-.37 2.61h-1.52l-.37-2.62c-1.19-.24-2.24-.88-3.01-1.76l-2.43 1.04-.75-1.3 2.12-1.56c-.4-1.16-.4-2.43 0-3.6l-2.11-1.55.75-1.3.06.02 2.9 2.92c-.25.51-.4 1.09-.4 1.71 0 2.21 1.79 4 4 4 .62 0 1.2-.14 1.71-.4l1.12 1.12c-.52.31-1.09.54-1.7.67m-3.07-10.53-1.51-1.51c.19-.09.38-.2.58-.28l.37-2.65c.04-.24.25-.42.5-.42h4c.25 0 .46.18.5.42l.37 2.65c.63.25 1.17.59 1.69.98l2.49-1c.22-.09.49 0 .61.22l2 3.46c.13.22.07.49-.12.64l-2.11 1.63.07 1-.07 1 2.11 1.63c.19.15.25.42.12.64l-1.16 2.02-1.46-1.45.28-.48-2.12-1.55c.4-1.17.4-2.44 0-3.61l2.11-1.55-.75-1.3-2.41 1.04c-.77-.89-1.83-1.53-3.03-1.77l-.37-2.62h-1.5l-.37 2.61c-.28.06-.56.14-.82.25m1.94 1.14c2.21 0 4 1.79 4 4 0 .25-.03.5-.07.73l-4.66-4.66c.23-.04.48-.07.73-.07z"/></svg>

<?xml version="1.0" encoding="UTF-8"?><!DOCTYPE svg PUBLIC "-//W3C//DTD SVG 1.1//EN" "http://www.w3.org/Graphics/SVG/1.1/DTD/svg11.dtd"><svg xmlns="http://www.w3.org/2000/svg" xmlns:xlink="http://www.w3.org/1999/xlink" version="1.1" id="mdi-cog-off-outline" width="24" height="24" viewBox="0 0 24 24"><path d="M22.11 21.46L2.39 1.73L1.11 3L4 5.88L2.34 8.73C2.21 8.95 2.27 9.22 2.46 9.37L4.57 11L4.5 12L4.57 12.97L2.46 14.63C2.27 14.78 2.21 15.05 2.34 15.27L4.34 18.73C4.46 18.95 4.73 19.03 4.95 18.95L7.44 17.94C7.96 18.34 8.5 18.68 9.13 18.93L9.5 21.58C9.54 21.82 9.75 22 10 22H14C14.25 22 14.46 21.82 14.5 21.58L14.87 18.93C15.38 18.73 15.83 18.45 16.26 18.15L20.84 22.73L22.11 21.46M10 11.9L12.1 14C12.06 14 12.03 14 12 14C10.9 14 10 13.11 10 12C10 11.97 10 11.94 10 11.9M13.13 17.39L12.76 20H11.24L10.87 17.38C9.68 17.14 8.63 16.5 7.86 15.62L5.43 16.66L4.68 15.36L6.8 13.8C6.4 12.64 6.4 11.37 6.8 10.2L4.69 8.65L5.44 7.35L5.5 7.37L8.4 10.29C8.15 10.8 8 11.38 8 12C8 14.21 9.79 16 12 16C12.62 16 13.2 15.86 13.71 15.6L14.83 16.72C14.31 17.03 13.74 17.26 13.13 17.39M10.06 6.86L8.55 5.35C8.74 5.26 8.93 5.15 9.13 5.07L9.5 2.42C9.54 2.18 9.75 2 10 2H14C14.25 2 14.46 2.18 14.5 2.42L14.87 5.07C15.5 5.32 16.04 5.66 16.56 6.05L19.05 5.05C19.27 4.96 19.54 5.05 19.66 5.27L21.66 8.73C21.79 8.95 21.73 9.22 21.54 9.37L19.43 11L19.5 12L19.43 13L21.54 14.63C21.73 14.78 21.79 15.05 21.66 15.27L20.5 17.29L19.04 15.84L19.32 15.36L17.2 13.81C17.6 12.64 17.6 11.37 17.2 10.2L19.31 8.65L18.56 7.35L16.15 8.39C15.38 7.5 14.32 6.86 13.12 6.62L12.75 4H11.25L10.88 6.61C10.6 6.67 10.32 6.75 10.06 6.86M12 8C14.21 8 16 9.79 16 12C16 12.25 15.97 12.5 15.93 12.73L11.27 8.07C11.5 8.03 11.75 8 12 8Z" /></svg>
